X: 1
T:Mr. Webster
M:4/4
L:1/8
C:Traditional
S:The Virtual Tunebook at CelticMusic.com
R:Strathspey
Z:Dan Deimborn, Thornton Rose
K:D
A2 | F<B B>c d/2c/2B/2A/2 B>A | F<B B>c d>c B>A | F<B B>c d/2c/2B/2A/2 B
>A |
[1 A>F D>d c>d B>A :| [2 A>F D>d c>d B2 ||
A>B d>e f/2e/2d/2c/2 d2 | A>B d>e f<d e<c | A>B d>e f/2e/2d/2c/2 d>B | A
>F D>d c>d B2 |
A>B d>e f/2e/2d/2c/2 d2 | A>B d>e f<d e<c |
[1 d<f c<e B<d A>B :| [2 A>F D>d c>d B2 |]

